X: 24
T:The Enchanted Lady
M:C | 
L:1/8
C:Traditional, arr. Roger Landes
S:Bothy Band
R:Reel
K:D
{B}AAAG FAdB | AGFD EAA/A/A | {B}AAAG FAdB |1 ABde fedB :|2 ABde fdde || f/f/fdf efde | f/f/fdf edBd |1 f/f/fdf efdB | ABAG FDD/D/D :|2 A/A/AAB dfbf | afeg fdd/d/d ||
